X: 08071
T: MARGO'S WALTZ
C: Bob McQuillen 30 Aug 91
B: Bob's Note Book 8 #71
%R: waltz
Z: 2021 John Chambers <jc:trillian.mit.edu>
M: 3/4
L: 1/4
K: D
F/E/ \
| "D"DFA | d2f/e/ | "G"dc>B | "D"BAF/E/ | DFA | "Bm"dd>B | "G6"AFD | "A7"E2F/E/ |
| "D"DFA | d2f/e/ | "G"dc>B | "D"BAF/A/ | "G"B>cd | "D"AFG | "A7"F>DE | "D"D2 :|
|: A \
| "G"B>GB | B>de | "D"A>BA | AFA | "G"B>GB | Bcd | "E7"f>ed | "A7"e2d/e/ |
| "D"fg>f | "D7"fef | "G"dc<B  |"D"BA2 | "G"d>cB | "D"A<dF | "A7"E>DE | "D"D2 :|
%%begintext align
%% I have a great time when I go to Irish week at
%% Augusta (in Elkins, WV). It's a wonderful experience,
%% and Margo Blevin, the Program Director, is always
%% so nice to me that I thought she needed a waltz of her own.
%%endtext
